src/pos-icons/page-first.svg

<svg height="24" viewBox="0 0 24 24" width="24" xmlns="http://www.w3.org/2000/svg"><path d="m18.41 16.59-4.59-4.59 4.59-4.59-1.41-1.41-6 6 6 6zm-12.41-10.59h2v12h-2z"/></svg>

<?xml version="1.0" encoding="UTF-8"?><!DOCTYPE svg PUBLIC "-//W3C//DTD SVG 1.1//EN" "http://www.w3.org/Graphics/SVG/1.1/DTD/svg11.dtd"><svg xmlns="http://www.w3.org/2000/svg" xmlns:xlink="http://www.w3.org/1999/xlink" version="1.1" id="mdi-page-first" width="24" height="24" viewBox="0 0 24 24"><path d="M18.41,16.59L13.82,12L18.41,7.41L17,6L11,12L17,18L18.41,16.59M6,6H8V18H6V6Z" /></svg>
